shape-circle-plus.svg

<svg fill="currentColor" viewBox="0 0 24 24"><path d="M11 19a6 6 0 0 0 6-6h2a8 8 0 0 1-8 8 8 8 0 0 1-8-8 8 8 0 0 1 8-8v2a6 6 0 0 0-6 6 6 6 0 0 0 6 6m8-14h3v2h-3v3h-2V7h-3V5h3V2h2z"/></svg>

<svg  viewBox="0 0 24 24" fill="currentColor"><path  d="M11,19A6,6 0 0,0 17,13H19A8,8 0 0,1 11,21A8,8 0 0,1 3,13A8,8 0 0,1 11,5V7A6,6 0 0,0 5,13A6,6 0 0,0 11,19M19,5H22V7H19V10H17V7H14V5H17V2H19V5Z"/></svg>
